X:1
T:Lieder, Op.12
T:Liebst du um Schönheit
T:4. Liebst du um Schönheit
T:Clara Schumann
T:Friedrich Rückert
T:Lieder, Op.12
T:OpenScore (CC0)
T:OpenScore (CC0)
T:OpenScore (CC0)
C:Clara Schumann
Z:Friedrich Rückert
Z:OpenScore (CC0)
%%score 1 { ( 2 3 8 ) | ( 4 5 6 7 ) }
L:1/8
Q:1/4=80
M:4/4
K:Db
V:1 treble nm="Voice"
V:2 treble nm="Piano"
V:3 treble 
V:8 treble 
V:4 bass 
V:5 bass 
V:6 bass 
V:7 bass 
V:1
"^Nicht zu langsam" z8 | z8 |!p! A4!<(! A2 A2!<)! |!>(! d2!>)! A2 z4 | z2 d2!>(! c3 B!>)! | B4 A4 | %6
w: ||Liebst du um|Schön- heit,|o nicht mich|lie- be!|
!p! B4 B2 B2 | A4 A2 A2 | G3 G F2 F2 | F4-[Q:1/4=74] F z z2[Q:1/4=76] | %10
w: Lie- be die|Son- ne, sie|trägt ein gold'- nes|Haar! *|
 z2[Q:1/4=80]!<(! A2 A2 A2!<)! |!>(! d2!>)! A2 z4 | z2 d2!>(! (d c2) B!>)! | B4 A4 | %14
w: Liebst du um|Ju- gend,|o nicht * mich|lie- be!|
!mf! d2 d d!>(! d2!>)! c2 | z4 z2 z A |!<(! G3 G!<)!!>(! e3 G!>)! | F4 z4 | %18
w: Lie- be den Früh- ling,|der|jung ist je- des|Jahr!|
!mf!!<(! A4 A2!f! A2!<)! |!>(! d2!>)! A2!mf! z4 | z2 d2 (d2 c) B | B4 A4 | B4 B2 B2 | %23
w: Liebst du um|Schä- tze,|o nicht * mich|lie- be!|Lie- be die|
!<(! A4 A2 A2 | G3 G F2 F2!<)! |!f! F4[Q:1/4=76] z4[Q:1/4=74][Q:1/4=72] | %26
w: Meer- frau, sie|hat viel Per- len|klar.|
[Q:1/4=88]"^Bewegter"!mp! z2!<(! A2 A2 A2!<)! |!f!!>(! d2!>)!!mf! A2 z4 | z2!f! d2 (d c2) B | %29
w: Liebst du um|Lie- be,|o ja * mich|
 B4 A4 | z !>!d !>!d !>!d d2 c2 | z B B B B2 A2 | G2 G G G2 F2 |!f! d4[Q:1/4=74] d2 d2[Q:1/4=76] | %34
w: lie- be!|Liebst du um Lie- be,|o ja  mich lie- be,|lie- be mich im- mer,|dich lieb ich|
[Q:1/4=72] d4- dc Bc |[Q:1/4=80]"_a tempo" d4- d2 z2 | z8[Q:1/4=76] |[Q:1/4=74] z8[Q:1/4=72] | z8 | %39
w: im- * * mer- *|dar! *||||
 z8 | !fermata!z8 |] %41
w: ||
V:2
!p! ([DFA]6 [CA]2 | [DFA]6 [CA]2) | [DFA]6 [CA]2 | [DFA]6 [CA]2 | [DFA]4 [DA]4 | ([D_FB]4 A3) A | %6
!p! B4 B3 B | A4 A3 A | G3 G F2 F2 | [=A,CF-]4 F (.[CE_A].[DFA].[CGA]) | ([DFA]6 [CA]2 | %11
 [DFA]6 [CA]2 | [DFA]4) [DA]4 | ([D_FB]4 A3) A |!mf! d3 d- (dcAF) |!p! (B2 BB) (BAF_D) | %16
 G4-!mf! G4 |!p! [DF]3 [DF] E A2 _G |!mf! [DFA]6 [CA]2 | [DFA]6 [CA]2 | ([DFA]4 [_FA]4) | %21
 ([D_F=GB]4 [CEA]2) z A | B4 B3 B | A4 A3 A | G3 G F2 F2 | %25
 [=A,CF]4- [A,CF]"^rit."(.[_A,CE_A].[A,DFA].[CGA]) |!p! [DFA]4!<(! x4!<)! |!mf! d2 z2 z2 [CA]2 | %28
!f! [DFA]4!>(! d c2 B!>)! |!mf! ([D_F=GB]4 [CEA]2) z A |!f! d3 d- d(cAF) | B3 B- B(AF_D) | %32
 G3!>(! [DG] ([EG]2 [DF]2)!>)! |!mf! z!<(! [_B,E][B,E][B,F] [B,F][B,G][B,G]!<)!!f! z | %34
 z!ff! (.[DA].[D=A].[D_F_B])!>(! [CEA]4!>)! |!f! ([DFA]6 [CA]2 | DdcB __Bg[A=f]e | e4- e4 | %38
 CDEA, __B,2 A,2) | [F,D]4 [Fd]4- | !fermata![Fd]8 |] %41
V:3
 z2 z A, B,GFE | z2 z A, B,GFE | z2 z A, B,GFE | z2 z A, B,GFE | x4 _F3 F | x4 [CE] z z2 | %6
 z AG[FA] [EG][DF][CE]G | z GF[EG] [DF][CE][B,D]F | z [DF][CE][B,D] [=A,C][B,D][=G,B,][B,D] | x8 | %10
 z2 z A, B,GFE | z2 z A, B,GFE | x4 _F3 F | x4 [CE] z z2 | z (F_G=G) A2 z2 | z D=DE F2 z2 | %16
 z!<(! [DF][CE][B,D]!<)! [A,C]!>(! A,3!>)! | x4 C2 DC | z2 z A, B,GFE | z2 z A, B,GFE | x8 | x8 | %22
 z AG[FA] [EG][DF][CE]G | z GF[EG] [DF][CE][B,D]F | z [DF][CE][B,D] [=A,C][B,D][=G,B,][B,D] | x8 | %26
 A,3 A, [B,G][Gg][FA-f][EAe] | [DFA]2 z A, B,GFE | x4 [D_FA]4 | x8 | z (FG=G) A2 z2 | %31
 z (D=DE) F2 z2 | z __B,2 A, B, A,2 A, | x8 | x8 | z2 z A, B,GFE | D2 _F2 [DE]2 E2 | E4- E4 | x8 | %39
 x8 | x8 |] %41
V:4
 z (D,,A,,F, E,2) [A,,G,]2 | z (D,,A,,F, E,2) [A,,G,]2 | z (D,,A,,F, E,2) [A,,G,]2 | %3
 z (D,,A,,F, E,2) [A,,G,]2 | z (D,,A,,D, _F,A,D) z | z (A,,_F,=G, A,CE) z | _G,, B,3 B,3 B, | %7
 A,4 A,3 A, | G,3 G, [=A,,C,][B,,D,][=G,,B,,][B,,D,] | x4 [=A,C] ._A,.A,.A, | %10
 z (D,,A,,F, E,2) [A,,G,]2 | z (D,,A,,F, E,2) [A,,G,]2 | z (D,,A,,D, _F,A,_D) z | %13
 z (A,,_F,=G, A,CE) z | z DE=E F4 | z B,=B,C _D4 | x4 A,, A,,B,,C, | x4 A,4 | %18
 z (D,,A,,F, E,2) [A,,G,]2 | z (D,,A,,F, E,2) [A,,G,]2 | z (D,,A,,D, _F,A,D_F) | %21
 z (A,,_F,=G, A,CE) z | _G,, B,3 B,3 B, | A,4 A,3 A, | G,3 G, F,2 x2 | %25
 z (F,,3- F,,) (.[_G,,_G,].[F,,F,].[E,,E,]) | z (D,,A,,F, E,2) [A,,G,C]2 | %27
 z (D,,A,,F, E,2) [A,,G,C]2 | z ((D,,A,,D, [_F,,_F,]A,D))_F | z (A,,_F,=G, A,CE) z | z (DE=E) F4 | %31
 z (B,=B,C) _D4 | z (E,__E,D,) (C,2 D,2) | %33
 [G,,,G,,]"^ritard." [G,,D,][G,,D,][F,,D,] [F,,D,][E,,D,][E,,D,] [A,,,A,,] | %34
 [A,,,A,,] (.[F,A,].[G,=A,].[=G,_B,]) [_A,,_G,_A,]4 | z ((D,,A,,F, E,2) [A,,G,]2 | %36
 [D,F,]2 [=G,,B,]2 [_G,,_G,]2"^ritard." [A,,G,C]2 | [D,G,C]4-) [D,G,C]4 | z8 | [D,,A,,]4 [D,A,]4- | %40
 !fermata![D,A,]8 |] %41
V:5
 x8 | x8 | x8 | x8 | x8 | x8 | x (A,G,[F,A,] [E,G,][D,F,][C,E,]G, | %7
 F,,G,F,[E,G,] [D,F,][C,E,][B,,D,]F, | E,,4 F,,4) | z"^ritard." (F,,C,F, x) (._G,.F,.E,) | x8 | %11
 x8 | x8 | x8 | (B,4 A,4) | (G,4 F,4) | (E,4 x) A,,3 | D,F,G,=G, A,_G,F,E, | x8 | x8 | x8 | x8 | %22
 x A,G,[F,A,] [E,G,][D,F,][C,E,]G, | F,,G,F,[E,G,] [D,F,][C,E,][B,,D,]F, | %24
 E,,[D,F,][C,E,][B,,D,] F,,4 | x F,,C,F, x4 | x8 | x8 | x8 | x8 | (B,4 A,4) | (G,4 F,4) | x8 | x8 | %34
 x8 | x8 | x8 | x8 | x8 | x8 | x8 |] %41
V:6
 x8 | x8 | x8 | x8 | x8 | x8 | x8 | x8 | x4 F,2 x2 | x8 | x8 | x8 | x8 | x8 | x8 | x8 | x8 | x8 | %18
 x8 | x8 | x8 | x8 | x8 | x8 | x4 [=A,,C,][B,,D,][=G,,B,,][B,,D,] | x8 | x8 | x8 | x8 | x8 | x8 | %31
 x8 | x8 | x8 | x8 | x8 | x8 | x8 | x8 | x8 | x8 |] %41
V:7
 x8 | x8 | x8 | x8 | x8 | x8 | x8 | x8 | E,,[D,F,][C,E,][B,,D,] x4 | x8 | x8 | x8 | x8 | x8 | x8 | %15
 x8 | x8 | x8 | x8 | x8 | x8 | x8 | x8 | x8 | x8 | x8 | x8 | x8 | x8 | x8 | x8 | x8 | x8 | x8 | %34
 x8 | x8 | x8 | x8 | x8 | x8 | x8 |] %41
V:8
 x8 | x8 | x8 | x8 | x8 | x8 | x8 | x8 | x8 | x8 | x8 | x8 | x8 | x8 | x8 | x8 | x4 x CDE | x8 | %18
 x8 | x8 | x8 | x8 | x8 | x8 | x8 | x8 | x8 | x8 | x8 | x8 | x8 | x8 | x8 | x8 | x8 | x8 | x8 | %37
 A3 =A BEFG | x8 | x8 | x8 |] %41

